icons/udemy-logo.svg

<?xml version="1.0" encoding="UTF-8"?>
<svg width="512px" height="146px" viewBox="0 0 512 146" version="1.1" xmlns="http://www.w3.org/2000/svg" xmlns:xlink="http://www.w3.org/1999/xlink" preserveAspectRatio="xMidYMid">
    <g>
        <path d="M471.893228,124.869021 L486.584595,124.869021 L512.003291,60.4528486 L497.461377,60.4528486 L486.954666,92.5352054 L475.885731,60.4528486 L459.654772,60.4528486 L478.981522,106.98223 L471.893228,124.869021 Z M398.974898,75.7443949 L398.974898,108.763792 L384.153059,108.763792 L384.153059,60.4528486 L394.567251,60.4528486 L397.663042,64.6730877 C401.695873,61.2973709 406.011002,59.3260282 410.983247,59.3260282 C417.644534,59.3260282 422.709296,61.2973709 425.805086,66.1770965 C430.307624,62.047003 435.092459,59.3260282 441.191523,59.3260282 C452.635274,59.3260282 459.296562,65.237684 459.296562,81.2788624 L459.296562,108.763792 L444.474722,108.763792 L444.474722,82.967907 C444.474722,75.556987 441.471449,73.3982362 436.686613,73.3982362 C433.87312,73.3982362 431.529334,74.1478684 428.900877,75.8369128 C429.090658,77.5259574 429.183175,79.3075198 429.183175,81.2788624 L429.183175,108.763792 L414.361335,108.763792 L414.361335,82.967907 C414.361335,75.556987 411.358063,73.3982362 406.480709,73.3982362 C403.759734,73.3982362 401.508466,74.0553505 398.974898,75.7443949 L398.974898,75.7443949 Z M347.281122,79.8721161 L366.325573,79.8721161 C365.293643,73.5880165 361.915554,70.5847435 356.850793,70.5847435 C352.533291,70.5847435 348.407942,73.1183103 347.281122,79.8721161 L347.281122,79.8721161 Z M357.882723,109.703204 C343.623107,109.703204 332.176984,102.6671 332.176984,84.0923552 C332.176984,66.7369482 343.248291,59.2335103 356.006271,59.2335103 C371.390335,59.2335103 378.23903,70.0201472 378.23903,87.000738 L347.186232,87.000738 C348.220535,95.3486984 353.380185,97.7897467 360.228882,97.7897467 C366.852214,97.7897467 372.033215,96.1552644 376.042324,93.4580121 L374.030653,105.214901 C370.204208,108.170729 365.611525,109.703204 357.882723,109.703204 L357.882723,109.703204 Z M302.692245,97.227523 C306.067961,97.227523 308.601528,96.6629268 311.227612,94.6939565 L311.227612,73.6805344 C308.883826,72.2714158 306.540039,71.6166738 303.16195,71.6166738 C295.938439,71.6166738 291.810717,76.4940271 291.810717,84.6545793 C291.810717,92.6300958 296.033329,97.227523 302.692245,97.227523 L302.692245,97.227523 Z M314.135996,105.200667 C310.290572,108.10905 305.882925,109.890612 299.596454,109.890612 C286.368767,109.890612 276.801469,101.730061 276.801469,84.9368775 C276.801469,68.2385847 287.777886,59.2335103 301.847722,59.2335103 C305.130921,59.2335103 308.321602,59.7032165 311.227612,60.8276647 L311.227612,40.3219051 L326.051825,40.3219051 L326.051825,108.763792 L316.669562,108.763792 L314.135996,105.200667 Z M213.998429,80.1520421 L213.998429,44.3476193 L229.382493,44.3476193 L229.382493,79.8721161 C229.382493,92.6300958 235.104369,95.2561803 242.984995,95.2561803 C251.522735,95.2561803 255.930383,91.503275 255.930383,79.8721161 L255.930383,44.3476193 L271.409337,44.3476193 L271.409337,80.1520421 C271.409337,101.260354 262.216854,110.078021 242.235363,110.078021 C223.660618,110.078021 213.998429,102.479692 213.998429,80.1520421 L213.998429,80.1520421 Z" fill="#645A53"></path>
        <path d="M174.790297,82.8367214 C174.166394,82.3361759 173.464207,81.9993159 172.700342,81.8546084 C168.188316,86.3524011 162.682315,91.0897915 157.793101,94.273356 C155.537088,95.7726197 152.699872,96.522252 150.821047,96.522252 C146.496429,96.522252 144.617604,92.3992753 144.053008,85.8447389 C143.301004,77.041306 142.793341,66.496639 142.793341,50.1992572 C142.793341,33.4843587 139.000108,22.1212643 128.894308,21.229297 C128.467302,21.1913409 128.035552,21.1652461 127.584824,21.1652461 C121.381381,21.1652461 118.373363,24.3488104 114.425933,32.4049833 C111.043099,39.3343359 105.77907,49.4496251 96.0053842,68.5557551 C87.5459285,85.0405449 78.14706,99.6512542 70.06242,109.766544 C67.8111513,112.570547 66.0319611,114.496817 64.3595224,115.592798 C63.242191,116.328197 62.1699324,116.695896 61.0407397,116.695896 C57.8500587,116.695896 55.5205058,114.003389 54.7424066,107.733523 C54.5573708,106.243747 54.4601084,104.552331 54.4601084,102.647411 C54.4601084,89.7233732 59.3493229,68.7431631 67.8064068,37.8350717 C74.0098498,15.3579694 71.3790206,0 57.8429419,0 C57.8215917,0 57.8002414,0 57.7788911,0 C57.750424,0 57.721957,0 57.6911178,0 L57.6816287,0.00237225354 C54.6166771,0.0379560566 52.0759936,1.14817072 49.6278279,3.07444059 C47.2176183,4.97224342 44.8050365,9.07149754 42.5537679,14.5822425 C40.0154566,20.79043 24.5815751,51.7483387 0.0168896547,67.6969992 C-0.272525277,73.7604793 3.1601256,79.8215871 10.115573,80.4787014 C16.4471177,81.0788815 20.9425381,78.4100962 26.7308367,74.5219727 C26.2967143,76.4553594 25.8958035,78.2630165 25.5304765,79.9164773 C25.0987263,81.8688419 24.7310271,83.5531419 24.4368676,84.9124432 C23.9956284,86.9359755 23.7157025,88.2383427 23.6326737,88.5989252 C22.8284797,92.2877793 22.2543944,95.7915976 21.8819505,99.1174977 C18.4184603,130.077778 32.768222,145.355091 49.5732661,145.355091 C52.3820143,145.355091 55.1646677,145.020604 57.9283431,144.318417 C76.443782,139.623727 94.2688953,118.384941 115.367718,69.4927952 C115.047464,74.8113877 115.014252,79.7788866 115.244361,84.3881752 C116.634501,112.409234 127.71767,120.816501 143.376915,120.816501 C155.219205,120.816501 166.30949,114.63678 171.948337,106.955423 C176.085547,101.522963 177.776964,95.5282775 177.776964,90.8454493 C177.776964,87.2111569 176.624049,84.3098908 174.790297,82.8367214" fill="#EA5252"></path>
    </g>
</svg>

<svg xmlns="http://www.w3.org/2000/svg" viewBox="0 0 512.003 145.355">
  <path fill="#645a53" d="M471.893 124.869h14.692l25.418-64.416h-14.542l-10.506 32.082-11.07-32.082h-16.23l19.327 46.53zm-72.918-49.125v33.02h-14.822V60.453h10.414l3.096 4.22c4.033-3.376 8.348-5.347 13.32-5.347 6.662 0 11.726 1.971 14.822 6.851 4.503-4.13 9.287-6.851 15.387-6.851 11.443 0 18.105 5.912 18.105 21.953v27.485h-14.822V82.968c0-7.411-3.004-9.57-7.788-9.57-2.814 0-5.158.75-7.786 2.439.19 1.689.282 3.47.282 5.442v27.485h-14.822V82.968c0-7.411-3.003-9.57-7.88-9.57-2.721 0-4.973.657-7.506 2.346zm-51.694 4.128h19.045c-1.032-6.284-4.41-9.287-9.475-9.287-4.318 0-8.443 2.533-9.57 9.287zm10.602 29.831c-14.26 0-25.706-7.036-25.706-25.61 0-17.356 11.071-24.86 23.83-24.86 15.383 0 22.232 10.787 22.232 27.768h-31.053c1.035 8.348 6.194 10.789 13.043 10.789 6.623 0 11.804-1.635 15.813-4.332l-2.011 11.757c-3.827 2.956-8.42 4.488-16.148 4.488zm-55.19-12.475c3.375 0 5.909-.565 8.535-2.534V73.681c-2.344-1.41-4.688-2.064-8.066-2.064-7.224 0-11.351 4.877-11.351 13.038 0 7.975 4.222 12.573 10.881 12.573zm11.443 7.973c-3.845 2.908-8.253 4.69-14.54 4.69-13.227 0-22.795-8.16-22.795-24.954 0-16.698 10.977-25.703 25.047-25.703 3.283 0 6.474.47 9.38 1.594V40.322h14.824v68.442h-9.382zM213.998 80.152V44.348h15.384v35.524c0 12.758 5.722 15.384 13.603 15.384 8.538 0 12.945-3.753 12.945-15.384V44.348h15.48v35.804c0 21.108-9.193 29.926-29.175 29.926-18.574 0-28.237-7.598-28.237-29.926z"/>
  <path fill="#ea5252" d="M174.79 82.837a4.73 4.73 0 0 0-2.09-.982c-4.512 4.497-10.018 9.235-14.907 12.418-2.256 1.5-5.093 2.25-6.972 2.25-4.325 0-6.203-4.124-6.768-10.678-.752-8.804-1.26-19.348-1.26-35.646 0-16.715-3.793-28.078-13.899-28.97a14.669 14.669 0 0 0-1.31-.064c-6.203 0-9.21 3.184-13.158 11.24-3.383 6.93-8.647 17.045-18.42 36.15-8.46 16.486-17.859 31.096-25.944 41.212-2.25 2.804-4.03 4.73-5.702 5.826-1.118.735-2.19 1.103-3.32 1.103-3.19 0-5.52-2.693-6.298-8.962-.185-1.49-.282-3.182-.282-5.087 0-12.924 4.89-33.904 13.346-64.812C74.01 15.358 71.38 0 57.843 0h-.152l-.01.002c-3.064.036-5.605 1.146-8.053 3.072-2.41 1.898-4.823 5.997-7.074 11.508C40.015 20.79 24.582 51.748.017 67.697c-.29 6.063 3.143 12.125 10.099 12.782 6.331.6 10.827-2.069 16.615-5.957a1600.089 1600.089 0 0 0-2.294 10.39c-.441 2.024-.721 3.326-.804 3.687a103.447 103.447 0 0 0-1.751 10.518c-3.464 30.96 10.886 46.238 27.691 46.238a33.77 33.77 0 0 0 8.355-1.037c18.516-4.694 36.34-25.933 57.44-74.825-.32 5.318-.354 10.286-.124 14.895 1.39 28.021 12.474 36.428 28.133 36.428 11.842 0 22.932-6.18 28.571-13.86 4.138-5.433 5.829-11.428 5.829-16.11 0-3.635-1.153-6.536-2.987-8.01"/>
</svg>
